actions/symbolic/window-restore-symbolic.svg

<?xml version="1.0" encoding="UTF-8" standalone="no"?>
<svg
   xmlns:dc="http://purl.org/dc/elements/1.1/"
   xmlns:cc="http://creativecommons.org/ns#"
   xmlns:rdf="http://www.w3.org/1999/02/22-rdf-syntax-ns#"
   xmlns:svg="http://www.w3.org/2000/svg"
   xmlns="http://www.w3.org/2000/svg"
   xmlns:sodipodi="http://sodipodi.sourceforge.net/DTD/sodipodi-0.dtd"
   xmlns:inkscape="http://www.inkscape.org/namespaces/inkscape"
   viewBox="0 0 16 16"
   id="svg3603"
   version="1.1"
   inkscape:version="0.91 r13725"
   sodipodi:docname="window-restore-symbolic.svg">
  <metadata
     id="metadata3611">
    <rdf:RDF>
      <cc:Work
         rdf:about="">
        <dc:format>image/svg+xml</dc:format>
        <dc:type
           rdf:resource="http://purl.org/dc/dcmitype/StillImage" />
      </cc:Work>
    </rdf:RDF>
  </metadata>
  <sodipodi:namedview
     pagecolor="#ffffff"
     bordercolor="#666666"
     borderopacity="1"
     objecttolerance="10"
     gridtolerance="10"
     guidetolerance="10"
     inkscape:pageopacity="0"
     inkscape:pageshadow="2"
     inkscape:window-width="640"
     inkscape:window-height="480"
     id="namedview3609"
     showgrid="false"
     inkscape:zoom="39.8125"
     inkscape:cx="3.5290424"
     inkscape:cy="8"
     inkscape:current-layer="svg3603" />
  <defs
     id="defs3051">
    <style
       type="text/css"
       id="current-color-scheme">
      .ColorScheme-Text {
        color:#bebebe;
      }
      </style>
  </defs>
  <path
     style="color:#bebebe;fill:currentColor;fill-opacity:1;stroke:none"
     class="ColorScheme-Text"
     d="M 8,2 A 6,6 0 0 0 2,8 6,6 0 0 0 8,14 6,6 0 0 0 14,8 6,6 0 0 0 8,2 Z m 0.5670362,1.7011077 0,0.00154 c 0.096,-0.00769 0.19231,0.021308 0.2615938,0.090723 l 3.38256,3.3886077 c 0.06783,0.067923 0.09655,0.1595077 0.08921,0.2540308 l 0,0.00615 C 12.290065,7.6423923 12.119594,7.8116538 11.919355,7.8217 l -3.5625004,0.1738923 -0.015123,0.00462 C 8.1414938,8.0112077 7.9887062,7.8587154 7.9999969,7.6584769 L 8.1859846,4.0823692 c 0.0108,-0.1997538 0.1812846,-0.370523 0.3810485,-0.3810538 z M 7.6582662,8 C 7.8585046,7.989 8.0112915,8.1415 8,8.3417308 L 7.8140123,11.917846 c -0.0108,0.199746 -0.1812838,0.370516 -0.3810485,0.381046 l 0,-0.0015 c -0.096001,0.0078 -0.1923084,-0.02131 -0.2615923,-0.09072 L 3.7888108,8.8180615 C 3.7209723,8.7501385 3.6922485,8.6585538 3.6995969,8.5640308 l -0.003,-0.00615 C 3.7069277,8.3576538 3.8804354,8.1883846 4.0806723,8.1783385 l 3.5594762,-0.1738923 0.018146,-0.00462 z"
     id="path3607"
     inkscape:connector-curvature="0" />
</svg>

<svg xmlns="http://www.w3.org/2000/svg" viewBox="0 0 16 16">
  <path fill="#bebebe" d="M8 2a6 6 0 0 0-6 6 6 6 0 0 0 6 6 6 6 0 0 0 6-6 6 6 0 0 0-6-6zm.567 1.701v.002a.328.328 0 0 1 .262.09l3.382 3.389a.32.32 0 0 1 .09.254v.006a.41.41 0 0 1-.382.38l-3.562.174L8.342 8A.316.316 0 0 1 8 7.658l.186-3.576a.41.41 0 0 1 .381-.38zM7.658 8c.2-.011.353.142.342.342l-.186 3.576a.41.41 0 0 1-.381.38.328.328 0 0 1-.262-.091L3.79 8.818a.318.318 0 0 1-.09-.254l-.002-.006c.01-.2.183-.37.384-.38l3.56-.174L7.657 8z"/>
</svg>
